frontend/public/assets/material-icons/folder-terraform.svg

<svg xmlns="http://www.w3.org/2000/svg" viewBox="0 0 32 32">
  <path d="M13.84376,7.53645l-1.28749-1.0729A2,2,0,0,0,11.27591,6H4A2,2,0,0,0,2,8V24a2,2,0,0,0,2,2H28a2,2,0,0,0,2-2V10a2,2,0,0,0-2-2H15.12412A2,2,0,0,1,13.84376,7.53645Z" style="fill: #5c6bc0"/>
  <g>
    <path d="M27.03072,22.99342,32,19.83981V13.524l-4.96928,3.15933" style="fill: #c5cae9"/>
    <path d="M21.51406,13.524l4.97058,3.15933v6.31007L21.51536,19.837M16,16.31293l4.96928,3.15647V13.15646L16.00131,10m5.51536,16.84354L26.486,30V23.68708l-4.96929-3.15647" style="fill: #c5cae9"/>
  </g>
</svg>

<svg xmlns="http://www.w3.org/2000/svg" viewBox="0 0 32 32"><path fill="#5c6bc0" d="m13.844 7.536-1.288-1.072A2 2 0 0 0 11.276 6H4a2 2 0 0 0-2 2v16a2 2 0 0 0 2 2h24a2 2 0 0 0 2-2V10a2 2 0 0 0-2-2H15.124a2 2 0 0 1-1.28-.464"/><path fill="#c5cae9" d="M27.03 22.993 32 19.84v-6.316l-4.97 3.16m-5.516-3.16 4.97 3.16v6.31l-4.969-3.157M16 16.313l4.97 3.156v-6.313L16 10m5.516 16.844L26.486 30v-6.313l-4.97-3.156"/></svg>
